X:1
T:There’s a Wonderful Tree
T:There’s a Wonderful Tree
T:Fred Schilling
T:Mary Noel Meigs, 1869
T:Public Domain Courtesy of the Cyber Hymnal™
T:Public Domain Courtesy of the Cyber Hymnal™
C:Fred Schilling
Z:Public Domain
Z:Courtesy of the Cyber Hymnal™
%%score ( 1 2 ) ( 3 4 )
L:1/8
Q:1/4=85
M:6/8
K:Bb
V:1 treble 
V:2 treble 
V:3 bass 
V:4 bass 
V:1
 [DF]/[DF]/ | [DF][EG][CA] [DB][Ec][Fd] | [Ge][Fd][=E^c] [Fd]2 [F=B] | [=Ed]2 [Ec] [_EG][EG][EA] | %4
w: 1.~There’s a|won- der- ful tre- e, a|won- der- ful tree, The|hap- py child- ren re-|
w: 2.~It is|no- t a- lone in the|su- m- mer’s sheen, Its|boughs are broad and its|
w: 3.~It is|al- l a- lone with its|t- a- pers’ glow, That|flash on sh- in- ing|
w: 4.~And a|vo- ice is te- ll- ing|its boughs a- mong, Of|shep- herds watch- ing and|
w: 5.~So then|spre- ad thy branch- es, O|won- der- ful tree, And|bring some da- in- ty|
 (cB)[^CG] [DF]2 [DF]/[DF]/ | [DF][EG][CA] ([DB][Ec])[Fd] | (eB)[Ec] [Dd]2 [Fd] | %7
w: joice * to see; It is|spread- ing its branch- * es|year * by year, It|
w: leaves * are green; It is|bloom- ing for us~as * the|wild * winds blow, And|
w: eyes * be- low, And the|strange, sweet fruit on * each|la- * den bough, Is|
w: an- * gels’ song; Of a|ho- ly Babe in * a|man- * ger low, The|
w: gift * to me; May you|fi- ll my heart * with|burn- * ing love, To|
 [Fc][F=B][Fc] [=Ed][Ed][Fc] | (BA)[_EG] F3 | [DF]3 [^CG]3 | [^CG][DF][C=E] [DF]3 | [EF]3 [Ec]3 | %12
w: comes from the for- est to|flour- * ish here.|Oh, this|beau- ti- ful tree,|with its|
w: earth is all white with the|feather- * y snow;|And this|won- der- ful tree|with its|
w: all to be plucked by the|ga- * therers now.|Oh! this|won- der- ful tree,|with its|
w: beau- ti- ful sto- ry of|long * a- go.|When a|ra- di- ant star|threw its|
w: Him who didst come from His|home * a- bove;|From His|beau- ti- ful home|with the|
 ([DF][DB])[Ec] [Fd]2 [_Ad] | [Ge]3 [GB]2 [_Gc] | [Fd]3 ([DB]2 [^CG]) | %15
w: branch- * es wide, Is|al- ways, is|al- ways *|
w: branch- * es wide, Bears|ma- ny, bears|ma- ny~a *|
w: branch- * es wide, We|hail it, we|hail it, *|
w: beams * so wide, To|her- ald, to|her- ald~the *|
w: glor- * i- fied, To|give us, to|give us~the *|
 [DF][^C=E][DF] [_Ed]2 [E=c] | [DB]3- [DB]2 |] %17
w: bloom- ing at Christ- mas|tide. *|
w: gift for the Christ- mas|tide. *|
w: with~joy at the Christ- mas-|tide. *|
w: ear- li- est Christ- mas-|tide. *|
w: jo- y of Christ- mas-|tide. *|
V:2
 x | x6 | x6 | x6 | D2 x4 | x6 | E2 x4 | x6 | =E2 F3 x | x6 | x6 | x6 | x6 | x6 | x6 | x6 | x5 |] %17
V:3
 [B,,B,]/[B,,B,]/ | [B,,B,][B,,B,][B,,B,] [B,,B,][B,,B,][B,,B,] | %2
 [B,,B,][B,,B,][B,,B,] [B,,B,]2 [D,G,] | [C,B,]2 [C,B,] [F,A,][F,A,]F, | %4
 [B,,F,]2 [B,,=E,] [B,,F,]2 [B,,F,]/[B,,F,]/ | [B,,B,][B,,B,][B,,B,] ([B,,B,][B,,B,])[B,,B,] | %6
 [B,,G,]2 [B,,_G,] (F,=G,)[=B,,^G,] | [C,A,][C,^G,][C,A,] [C,B,][C,B,][C,A,] | %8
 (G,C)[C,B,] [F,A,]3 | [B,,F,]3 [B,,=E,]3 | [B,,E,][B,,F,][B,,G,] [B,,F,]3 | [C,A,]3 [F,A,]3 | %12
 [B,,B,]2 [B,,B,] [B,,B,]2 [F,B,] | [E,B,]3 [E,B,]2 [E,B,] | [B,,B,]3 ([B,,F,]2 [=E,B,]) | %15
 [F,B,][G,B,][F,B,] [F,A,]2 [F,,F,A,] | [B,,F,B,]3- [B,,F,B,]2 |] %17
V:4
 x | x6 | x6 | x5 F, | x6 | x6 | x3 =B,,2 x | x6 | C,2 x4 | x6 | x6 | x6 | x6 | x6 | x6 | x6 | %16
 x5 |] %17

